X:1
T:Title
%%score ( 1 2 ) ( 3 4 )
L:1/8
Q:1/4=113
M:6/8
K:C
V:1 treble nm="Grand Piano, Unnamed-000"
V:2 treble 
V:3 bass nm="Choir Pad, Kenosis, 66.66.86.86"
V:4 bass 
V:1
 [EG] [EG]2 [EG] [CE]2 | [EG] [FA]2- [FA][Ac][GB] | [FA] [EG]2 [EG] [DF]2 | %3
w: By~Philip~Paul~Bliss,~1873 * * *|||
 [B,G] [CE]2- [CE]2- [CE]/ z/ | [EG] [EG]2 [EG] [CE]2 | [EG] [FA]2- [FA][Ac][GB] | z3 z .B2 | %7
w: ||||
 [FB] [Ec]2- [Ec]2- [Ec]/ z/ | [Ec] [Fd]2 [Fd][Fd][Ec] | [DB] [Ec]2 [Ec] [EG]2 | z3 z .B2 | %11
w: ||||
 [FB] [Ec]2- [Ec]2- [Ec]/ z/ | [Ec] [Fd]2 [Fd][Fd][Ec] | [DB] [Ec]2 [Ec] [EG]2 | z3 z .B2 | %15
w: ||||
 [FB] [Ec]2- [Ec]2- [Ec]/ z/ |] %16
w: |
V:2
 x6 | x6 | x6 | x6 | x6 | x6 | [FA] [EG]2 GF-[FA] | x6 | x6 | x6 | [Ec] [FB]2 [FB]F-[FA] | x6 | %12
 x6 | x6 | [Ec] [FB]2 [FB]F-[FA] | x6 |] %16
V:3
 [C,C] [C,C]2 [C,C] [C,G,]2 | [C,C] [F,C]2- [F,C] [F,C]2 | [F,C] [G,C]2 [G,C] [G,B,]2 | %3
 G, [C,G,]2- [C,G,]2- [C,G,]/ z/ | [C,C] [C,C]2 [C,C] [C,G,]2 | [C,C] [F,C]2- [F,C]3 | %6
 [F,C] [G,C]2 [G,E] [G,D]2 | [G,D] [C,C]2- [C,C]2- [C,C]/ z/ | [C,C] [G,B,]2 [G,B,]B,C | %9
 [G,D] [C,C]2 [C,C] [C,C]2 | [C,C] [G,D]2 [G,D] [G,D]2 | G, [C,G,]2- [C,G,]2- [C,G,]/ z/ | %12
 [C,C] [G,B,]2 [G,B,]B,C | [G,D] [C,C]2 [C,C] [C,C]2 | [C,C] [G,D]2 [G,D] [G,D]2 | %15
 G, [C,G,]2- [C,G,]2- [C,G,]/ z/ |] %16
V:4
 x6 | x6 | x6 | x6 | x6 | x6 | x6 | x6 | z3 z G,2 | x6 | x6 | x6 | z3 z G,2 | x6 | x6 | x6 |] %16

